!!!OTL: 25. Schlaf, mein Kindchen, sieben Stund.
!!!COM: Volksweise
!!!ARE: Europa, Mitteleuropa, Deutschland, Thueringen
!!!SCT: K0025
!!!TXL: @@DE
!!!YEM: Copyright 1995, estate of Helmut Schaffrath.
**kern	**text
*M6/8	*
*k[f#]	*
*G:	*
=1	=1
{4b	Schlaf,
8b	mein
4dd	Kind-
8b	-chen,
=2	=2
8aL	ſie-
8bJ	.
8a	-ben
4g	Stund,
8r}	.
=3	=3
{4ee	bis
8ee	der
8.ddL	Va-
16ccJ	.
8b	-ter
=4	=4
8a/L	wie-
8ccJ	.
8b/	-derkommt!
4a	.
8r}	.
=5	=5
{4a	Va-
8cc	-ter
8bL	iſt
8aJ	.
8g	in
=6	=6
4ee	Wald
8ee	ge-
8.ddL	-gangen,
16ccJ	.
8b}	.
=7	=7
{4a	will
8ee	mei'm
8.ddL	Kindchen
16ccJ	.
8b	ein
=8	=8
8.cc	Vö-
16b	-gelchen
8a	.
4a	fan-
8g}	-gen.
==	==
!!!AGN: Kinder -, Wiegen - Lied
!!!ONB: ESAC (Essen Associative Code) Database: KINDER
!!!AMT: compound duple
!!!AIN: vox
!!!EED: Helmut Schaffrath
!!!EEV: 1.0
!!Alte Volksweise in Thֳ¼ringen. Text bei Simrock 222.
!!!GTL: I. Wiegenlieder.
!!!URL-scan: https://archive.org/details/DeutschesKinderliedUndKinderspiel/page/5/mode/1up
!!!ENC: Anna Maria Matuszewska
!!!EEV: 2024/29/08
*-	*-
